X: 40927
T: Trip To Birmingham, The
R: reel
M: 4/4
K: Dmajor
DB{A}GF GzBd|~E3D edBA|~G3B dzBG|ABAG EGDE|
DG{A}GF Gz{A}BD|e~d3 efga|b~g3 azge|dBAB {A}G4:|
|:dggf gzg2|{c}Bgag edBA|~g3B d2BG|ABAG EGDz|
dg{a}gf gzga|bgag edBA|~g3B d2BG|AGFA G4:|
"variation"
d~G3 A~G3|BG{B}AG edBA|~G3B DzBG|AGFA {A}G4:|

